X:1
T:Früehmorge-Juiz. 1997  Bb  ABAC
T:Berta Odermatt-Hofer
T:Dirigenten-Notiz  Edi Gasser
C:Unterwalden (CH)
%%partsbox
P:ABAC
R:Naturjodel
M:3/4
L:1/4
K:Bb
[P:A] f | c>d e/f/ | dB2 | c/F/ fc | d2f | c>d e/f/ | dB2 | c/F/f c/d/ | B2d | 
c>d e/f/ | dB2 | c/F/ fc | d2f | c>d e/f/ | dB2 | c/F/fc/d/ | !fermata!B2 || 
L:1/4
M:3/4
[P:B] c/B/ | A>GF | e>dc | B2D | F2c/B/ | A>GF | eAc | B2D | 
F2c/B/ | A>GF | e>dc | B2D | F2c/B/ | A>GF | eAA | (B3 | B2) ||
L:1/8
M:4/4
[P:C] c2A>GF2f2 | d3cB4 | c2A>GF2f2 | d2B2F4 | c2A>G Ffdc | 
d3cB4 | c2A>G Ff dc/F/ | B8 | c2A>G F2f2 | d3c B4 | c2A>GF2f2 | 
d2B2F4 | c2A>G Ffdc | d3cB4 | c2A>G Ff dc/F/ | B6z2 ||  
L:1/4
M:4/4
"_Abgesang"fcdF/c/ | B3z |] 
W:
%W:Reihenfolge: A - B - A - C
W:
W:notiert Edi Gasser. Angaben: Berta Odermatt
W:UJV-Naturjodelsammlung: Code-Nr: 51-01
W:http://www.naturjodler.ch/code 50.htm  (with AUDIO)
%Juni 28, 2018

